src/img/svg/logo-bank/25.svg

<svg width="140" height="28" viewBox="0 0 140 28" fill="none" xmlns="http://www.w3.org/2000/svg">
<g clip-path="url(#clip0_34_3466)">
<path d="M58.4843 9.96509C56.6593 9.96509 55.2942 10.6405 54.6189 11.7575H54.473V10.3083H51.1367V25.6589H54.473V20.7927H54.6189C55.2905 21.9097 56.6593 22.5851 58.4843 22.5851C61.9081 22.5851 64.6237 19.7887 64.6237 16.2733C64.6237 12.7615 61.9081 9.96509 58.4843 9.96509ZM57.8091 19.5479C55.9475 19.5479 54.473 18.0986 54.473 16.2733C54.473 14.4297 55.9475 12.9987 57.8091 12.9987C59.7254 12.9987 61.1817 14.4297 61.1817 16.2733C61.1817 18.1168 59.7071 19.5479 57.8091 19.5479Z" fill="#3B175C"/>
<path d="M133.103 10.8647C131.194 10.8647 129.701 11.5876 128.792 12.8434H128.642C128.891 10.5728 130.176 9.47025 132.942 9.07602L137.786 8.37507V5.30493L132.622 6.03876C127.851 6.70313 125.562 9.22928 125.562 13.7816C125.562 17.0744 125.774 18.1148 126.361 19.3597C127.285 21.3566 129.574 22.5832 132.341 22.5832C136.067 22.5832 138.943 19.9401 138.943 16.4794C138.94 13.15 136.563 10.8647 133.103 10.8647ZM132.304 19.5313C130.406 19.5313 129.004 18.2353 129.004 16.4794C129.004 14.7052 130.387 13.4092 132.304 13.4092C134.183 13.4092 135.57 14.7052 135.57 16.4794C135.57 18.2353 134.165 19.5313 132.304 19.5313Z" fill="#3B175C"/>
<path d="M47.6401 6.70307L43.8842 14.2744L38.7668 6.70307H34.7773L42.2052 17.6621L42.0008 18.0783C41.6796 18.7426 41.2562 19.1004 40.278 19.1004H37.6499V22.2545H40.6502C42.9388 22.2545 43.8623 21.6741 44.8186 19.7649L51.3851 6.69946H47.6401V6.70307Z" fill="#3B175C"/>
<path d="M83.894 10.3206L83.3247 17.7385C83.2371 18.8995 82.8465 19.3229 81.923 19.3229H81.1055V22.3419H83.0947C85.3322 22.3419 86.325 21.3198 86.4856 19.1879L86.9236 13.4236H91.0263V22.2398H94.3989V10.3206H83.894Z" fill="#3B175C"/>
<path d="M103.096 13.0315C104.461 13.0315 105.545 13.7981 106.06 14.8239L109.042 13.6996C108.209 11.4325 105.848 9.96509 103.026 9.96509C99.245 9.96509 96.3906 12.692 96.3906 16.2769C96.3906 19.8581 99.2486 22.5887 103.026 22.5887C105.848 22.5887 108.209 21.1212 109.042 18.8541L106.06 17.7298C105.545 18.752 104.461 19.5222 103.096 19.5222C101.198 19.5222 99.829 18.1751 99.829 16.2806C99.829 14.3786 101.198 13.0315 103.096 13.0315Z" fill="#3B175C"/>
<path d="M119.578 10.3049L114.398 17.8835V10.3049H111.062V22.2423H114.752L119.899 14.7185V22.2423H123.235V10.3049H119.578Z" fill="#3B175C"/>
<path d="M76.0804 11.7536H75.9345C75.2628 10.6366 73.8941 9.96118 72.069 9.96118C68.6453 9.96118 65.9297 12.7576 65.9297 16.2731C65.9297 19.7848 68.6453 22.5848 72.069 22.5848C73.8941 22.5848 75.2592 21.9095 75.9345 20.7924H76.0804V22.2417H79.4166V10.3044H76.0804V11.7536ZM72.748 19.5476C70.8499 19.5476 69.3753 18.1166 69.3753 16.2731C69.3753 14.4295 70.8317 12.9984 72.748 12.9984C74.6095 12.9984 76.0841 14.4295 76.0841 16.2731C76.0804 18.0983 74.6095 19.5476 72.748 19.5476Z" fill="#3B175C"/>
<path d="M25.3723 14.8251C25.3723 10.5028 23.018 6.70251 19.4811 4.53781L19.5285 7.47282C21.6309 9.27988 22.9633 11.9083 22.9633 14.8251C22.9633 16.1575 22.6785 17.4279 22.1785 18.5888C20.6564 17.1432 19.5723 15.442 18.8971 13.4342C18.0831 11.0029 17.8934 8.34167 17.8641 5.08901L17.8678 3.69081C17.1378 3.37687 16.3749 3.12869 15.5938 2.95337L15.5975 5.08529C15.674 16.3145 17.6195 20.9434 20.514 24.4224C23.4743 22.1882 25.3723 18.7202 25.3723 14.8251C25.3723 14.8287 25.3723 14.8287 25.3723 14.8251Z" fill="#3B175C"/>
<path d="M9.7785 5.0892L9.78215 2.95728C9.00103 3.13249 8.23817 3.38078 7.50817 3.69471L7.51182 5.09281C7.47897 8.34187 7.29281 11.0067 6.47885 13.4381C5.80724 15.4459 4.71953 17.1434 3.19745 18.5926C2.6974 17.4318 2.41269 16.1614 2.41269 14.829C2.41269 11.9085 3.74131 9.28368 5.84739 7.47662L5.89484 4.54161C2.35429 6.7027 0 10.503 0 14.8252V14.829C0 18.724 1.90168 22.1921 4.85822 24.4263C7.76002 20.9509 9.70185 16.3184 9.7785 5.0892Z" fill="#3B175C"/>
<path d="M13.8272 0.789894C13.4147 0.757036 13.0425 0.742432 12.692 0.742432C12.3416 0.742432 11.9693 0.757036 11.5532 0.789894V3.31239C11.5532 14.3663 11.1262 19.1705 9.47266 26.6322C11.5678 27.1616 13.7943 27.1616 15.8932 26.636C14.2506 19.2289 13.8272 14.4248 13.8272 3.31239V0.789894Z" fill="#3B175C"/>
</g>
<defs>
<clipPath id="clip0_34_3466">
<rect width="140" height="26.5152" fill="white" transform="translate(0 0.742432)"/>
</clipPath>
</defs>
</svg>

<svg width="140" height="28" viewBox="0 0 140 28" fill="none" xmlns="http://www.w3.org/2000/svg"><g clip-path="url(#a)" fill="#3B175C"><path d="M58.484 9.965c-1.825 0-3.19.675-3.865 1.793h-.146v-1.45h-3.336v15.35h3.336v-4.865h.146c.672 1.117 2.04 1.792 3.865 1.792 3.424 0 6.14-2.796 6.14-6.312 0-3.511-2.716-6.308-6.14-6.308Zm-.675 9.583c-1.861 0-3.336-1.45-3.336-3.275 0-1.843 1.474-3.274 3.336-3.274 1.916 0 3.373 1.43 3.373 3.274s-1.475 3.275-3.373 3.275Zm75.294-8.683c-1.909 0-3.402.723-4.311 1.978h-.15c.249-2.27 1.534-3.373 4.3-3.767l4.844-.7V5.304l-5.164.734c-4.771.664-7.06 3.19-7.06 7.743 0 3.292.212 4.333.799 5.578.924 1.997 3.213 3.223 5.98 3.223 3.726 0 6.602-2.643 6.602-6.104-.003-3.329-2.38-5.614-5.84-5.614Zm-.799 8.666c-1.898 0-3.3-1.296-3.3-3.052 0-1.774 1.383-3.07 3.3-3.07 1.879 0 3.266 1.296 3.266 3.07 0 1.756-1.405 3.052-3.266 3.052ZM47.64 6.703l-3.756 7.571-5.117-7.57h-3.99l7.428 10.958-.204.416c-.321.665-.745 1.022-1.723 1.022H37.65v3.154h3c2.289 0 3.212-.58 4.169-2.49L51.385 6.7H47.64v.004Zm36.254 3.617-.57 7.418c-.087 1.162-.477 1.585-1.401 1.585h-.817v3.019h1.989c2.237 0 3.23-1.022 3.39-3.154l.439-5.764h4.102v8.816H94.4V10.32H83.894Zm19.202 2.711c1.365 0 2.449.767 2.964 1.793l2.982-1.124c-.833-2.268-3.194-3.735-6.016-3.735-3.781 0-6.635 2.727-6.635 6.312 0 3.581 2.858 6.312 6.635 6.312 2.822 0 5.183-1.468 6.016-3.735l-2.982-1.124a3.284 3.284 0 0 1-2.964 1.792c-1.898 0-3.267-1.347-3.267-3.241 0-1.902 1.369-3.25 3.267-3.25Zm16.482-2.726-5.18 7.579v-7.58h-3.336v11.938h3.69l5.147-7.524v7.524h3.336V10.305h-3.657ZM76.08 11.754h-.145c-.672-1.117-2.04-1.793-3.866-1.793-3.424 0-6.14 2.797-6.14 6.312 0 3.512 2.716 6.312 6.14 6.312 1.825 0 3.19-.675 3.865-1.793h.146v1.45h3.337V10.304H76.08v1.45Zm-3.332 7.794c-1.898 0-3.373-1.431-3.373-3.275 0-1.843 1.457-3.275 3.373-3.275 1.861 0 3.336 1.432 3.336 3.275-.004 1.825-1.475 3.275-3.336 3.275Zm-47.376-4.723c0-4.322-2.354-8.122-5.89-10.287l.047 2.935c2.102 1.807 3.434 4.435 3.434 7.352a9.491 9.491 0 0 1-.785 3.764 12.436 12.436 0 0 1-3.28-5.155c-.815-2.431-1.005-5.092-1.034-8.345l.004-1.398a12.932 12.932 0 0 0-2.274-.738l.004 2.132c.076 11.23 2.021 15.858 4.916 19.337 2.96-2.234 4.858-5.702 4.858-9.597 0 .004 0 .004 0 0ZM9.778 5.09l.004-2.133c-.781.175-1.544.424-2.274.738l.004 1.398c-.033 3.249-.22 5.914-1.033 8.345a12.423 12.423 0 0 1-3.282 5.155 9.49 9.49 0 0 1-.784-3.764c0-2.92 1.328-5.545 3.434-7.352l.048-2.935C2.355 6.702 0 10.503 0 14.825v.004c0 3.895 1.902 7.363 4.858 9.597 2.902-3.475 4.844-8.108 4.92-19.337Zm4.049-4.3a14.211 14.211 0 0 0-1.135-.048c-.35 0-.723.015-1.139.048v2.522c0 11.054-.427 15.858-2.08 23.32 2.095.53 4.321.53 6.42.004-1.642-7.407-2.066-12.211-2.066-23.324V.79Z"/></g><defs><clipPath id="a"><path fill="#fff" d="M0 .742h140v26.515H0z"/></clipPath></defs></svg>
